X:1
T:Jalisco, 76.76 D
T:Jalisco, 76.76 D
T:Lucy Jane Rider Meyer, 1878
T:Public Domain Courtesy of the Cyber Hymnal™
C:Lucy Jane Rider Meyer, 1878
Z:Public Domain
Z:Courtesy of the Cyber Hymnal™
%%score ( 1 2 ) ( 3 4 )
L:1/8
Q:1/4=82
M:2/4
K:G
V:1 treble 
V:2 treble 
V:3 bass 
V:4 bass 
V:1
 [B,D][B,D] [DG][DG] | [DA][DA] [DB]2 | [Dc][Dc] [DA]2 | [Dd][Dd] [DB]2 | [B,D][B,D] [DG][DG] | %5
 [DA][FA] [GB]2 | [Gd]>[Ge] [Gd][DB] | [FA] G3 | [Ge][Ge] [Gc][Ge] | [Gd][Gd] [GB]2 | %10
 [Ac][Ac] [FA][GB] | [FA][EG] ([DF]!fermata![CE]) | [B,D][B,D] [DG][DG] | [DA][FA] [GB]2 | %14
 [Gd]>[Ge] [Gd][DB] | [FA] G3 |] %16
V:2
 x4 | x4 | x4 | x4 | x4 | x4 | x4 | x G3 | x4 | x4 | x4 | x4 | x4 | x4 | x4 | x G3 |] %16
V:3
 [G,,G,][G,,G,] [B,,G,][B,,G,] | [D,F,][D,F,] G,2 | [D,A,][D,A,] [D,F,]2 | %3
 [G,,B,][G,,B,] [G,,G,]2 | [G,,G,][G,,G,] [B,,G,][B,,G,] | [D,F,][D,D] [G,D]2 | %6
 [G,B,]>[G,C] [G,B,][G,D] | [D,C] [G,B,]3 | [C,C][C,C] [C,E][C,C] | [G,B,][G,B,] [G,D]2 | %10
 [D,D][D,D] [D,D][G,D] | [A,D][A,,A,] (A,!fermata!G,) | [G,,G,][G,,G,] [B,,G,][B,,G,] | %13
 [D,F,][D,D] [G,D]2 | [G,B,]>[G,C] [G,B,][G,D] | [D,C] [G,B,]3 |] %16
V:4
 x4 | x2 G,2 | x4 | x4 | x4 | x4 | x4 | x4 | x4 | x4 | x4 | x2 D,2 | x4 | x4 | x4 | x4 |] %16

